X: 25
T: En tous les lieux
N: Derived from Bus3018-En_tous_les_lieux.krn
C: Antoine Busnoys
%%abc-version 2.0
%%abcx-abcm2ps-target-version 5.9.1 (29 Sep 2008)
%%abc-creator hum2abc beta
%%abcx-conversion-date 2019/02/16 20:26:07
%%abc-edited-by Jesse Rodin
%%abc-edited-by Chris Gage 04-13-2015
%%abcx-initial-encoding-date 2015/05/01/
%%humdrum-veritas 1681783761
%%humdrum-veritas-data 2410932627
%%linebreak <none>
%%barnumbers 0
L: 1/4
M: 3/1
Q: 1/2=120
%%staves [1 2 3 4]
V: 1 clef=treble
V: 2 clef=treble
V: 3 clef=treble-8
V: 4 clef=bass
K: F
[V:1] c8c4 | 
[V:2] F12- | 
[V:3] c8A4 | 
[V:4] F,12 | 
[V:1] d4e6de | 
[V:2] F4G8 | 
[V:3] B3Ac8 | 
[V:4] D,4C,8 | 
[V:1] f4e2c2d4 | 
[V:2] F4G2A2B4 | 
[V:3] A4G2c4B2 | 
[V:4] D,2F,2C,4G,4 | 
[V:1] c6A2B4 | 
[V:2] A6F2G4 | 
[V:3] c2f3edcB3c | 
[V:4] A,2F,4A,2G,3F, | 
[V:1] A4z4F4- | 
[V:2] F4F4z4 | 
[V:3] d6c2A4 | 
[V:4] D,12- | 
[V:1] F4G8 | 
[V:2] A4B4B4 | 
[V:3] d12- | 
[V:4] D,4G,8 | 
[V:1] F4E2D4C2 | 
[V:2] A4G2A2B2c2- | 
[V:3] d4z4z4 | 
[V:4] D,4E,2F,2G,2A,2 | 
[V:1] F4E2F2G2A2 | 
[V:2] c2d2c2A2B2A2- | 
[V:3] A4c4B2c2 | 
[V:4] F,4A,4G,2F,2 | 
[V:1] F4G2A4GF | 
[V:2] AGF2E2C2D4 | 
[V:3] F2B4AGB4 | 
[V:4] D,4C,4B,,4 | 
[V:1] E4z4e4 | 
[V:2] C8z2C2 | 
[V:3] G8g4 | 
[V:4] C,12 | 
[V:1] f2g3ff4e2 | 
[V:2] D2E2F4G4 | 
[V:3] f2e2d2c4G2 | 
[V:4] z2C,2D,2F,2C,4 | 
[V:1] f4c2d2c2A2- | 
[V:2] F8F4- | 
[V:3] A2B2c2z2F3G | 
[V:4] F,3G,A,2B,2A,4 | 
[V:1] ABc4A2G3F/E/ | 
[V:2] F4E8 | 
[V:3] A3Bc4z2c2 | 
[V:4] F,4z4C4 | 
[V:1] D2C4F4E2 | 
[V:2] F2c3BA2G4 | 
[V:3] d2e2f4z2c2 | 
[V:4] B,2A,2F,4C4 | 
[V:1] F12- | 
[V:2] F4z2A2B2c2- | 
[V:3] d2c2A4z2A2- | 
[V:4] F,12- | 
[V:1] F4z2A2B2c2- | 
[V:2] c2A4F2G2A2 | 
[V:3] ABc3BA2G2F2 | 
[V:4] F,4z4z4 | 
[V:1] c2A4F2G2A2 | 
[V:2] F6D2E2F2- | 
[V:3] A3Bc2A2G2F2- | 
[V:4] F,8E,2D,2 | 
[V:1] F6D2E2F2- | 
[V:2] F2c2d2B2c3A | 
[V:3] F2A2G4z2c2- | 
[V:4] F,4B,4A,4 | 
[V:1] F2f3edcc2d2- | 
[V:2] A3FF4z2F2- | 
[V:3] c2A2B3GA2B2- | 
[V:4] F,4z2B,,2C,2B,,2- | 
[V:1] dc/d/e3fed/c/=B3A | 
[V:2] F2E2C4D4 | 
[V:3] BAG4g6 | 
[V:4] B,,2C,4C,2G,4 | 
[V:1] c4z2f2e2g2- | 
[V:2] C2F3GABc3B/A/ | 
[V:3] e3cd3c/d/e4 | 
[V:4] A,4F,3E,C,4 | 
[V:1] gf/e/d2c2e3d/c/B2 | 
[V:2] G2F2A3G/F/E2D2 | 
[V:3] z4c3GA2B2 | 
[V:4] C2D2A,3B,C2G,2 | 
[V:1] A2c3BA2G4 | 
[V:2] F3E/D/C2F4E2 | 
[V:3] c4A4z4 | 
[V:4] z2D,2A,3B,C4 | 
[V:1] F12 ]|:  
[V:2] F12 ]|:  
[V:3] c12 ||  
[V:4] F,12 ||  
[V:1]  [K:F] [K:clef=treble][M:2/1]z8 | 
[V:2]  [K:F] [K:clef=treble][M:2/1]F8 | 
[V:3]  [K:F] [K:clef=treble-8][M:2/1]d8 | 
[V:4]  [K:F] [K:clef=bass][M:2/1]B,8 | 
[V:1] z8 | 
[V:2] G4G4 | 
[V:3] B4B4 | 
[V:4] G,4G,4 | 
[V:1] F8 | 
[V:2] A6GF | 
[V:3] c4A4 | 
[V:4] F,6E,2 | 
[V:1] G4G4 | 
[V:2] E4E4 | 
[V:3] G4c4- | 
[V:4] C,4E,4 | 
[V:1] A6GF | 
[V:2] F8 | 
[V:3] c4=B4 | 
[V:4] D,8 | 
[V:1] E4E4 | 
[V:2] G8 | 
[V:3] c6B2 | 
[V:4] C,8 | 
[V:1] F8 | 
[V:2] F4F4- | 
[V:3] A4F4 | 
[V:4] D,4F,4 | 
[V:1] G8 | 
[V:2] F4E4 | 
[V:3] c8 | 
[V:4] C,8 | 
[V:1] F8 | 
[V:2] F4c4- | 
[V:3] F8 | 
[V:4] D,4F,4- | 
[V:1] z4f4- | 
[V:2] c2B2A4 | 
[V:3] z4c4 | 
[V:4] F,2D,2F,4 | 
[V:1] f4e4 | 
[V:2] G8 | 
[V:3] c6G2 | 
[V:4] C,4E,4 | 
[V:1] d4e4- | 
[V:2] F4G4- | 
[V:3] A4B4 | 
[V:4] F,4E,4 | 
[V:1] e2c2c4- | 
[V:2] G4E4 | 
[V:3] c4G4- | 
[V:4] C,8 | 
[V:1] c4=B4 | 
[V:2] D8 | 
[V:3] G4g4 | 
[V:4] G,8 | 
[V:1] c8 | 
[V:2] z4C4- | 
[V:3] e8 | 
[V:4] A,8 | 
[V:1] z4c4 | 
[V:2] C4F4- | 
[V:3] f8 | 
[V:4] F,8 | 
[V:1] d4d4 | 
[V:2] F4G4 | 
[V:3] d4B4 | 
[V:4] z8 | 
[V:1] c4A4 | 
[V:2] A4c4 | 
[V:3] F8 | 
[V:4] A,8 | 
[V:1] B4B4 | 
[V:2] d4d4 | 
[V:3] z4B4 | 
[V:4] G,4G,4 | 
[V:1] A8 | 
[V:2] c4A4 | 
[V:3] F4F4 | 
[V:4] A,4C4 | 
[V:1] d8 | 
[V:2] B4B4 | 
[V:3] B4G4 | 
[V:4] G,4B,4 | 
[V:1] c4f4- | 
[V:2] A4F4 | 
[V:3] A4c4- | 
[V:4] F,8 | 
[V:1] f2e2e2d2 |[1 
[V:2] G8 | 
[V:3] c4c4 | 
[V:4] C,8 | 
[V:1] f8 :|][2 
[V:2] F8 :|]  
[V:3] A8 :|]  
[V:4] F,8 :|]  
[V:1] (3f4d4f4 | 
[V:2] (3:2:2F8D4 | 
[V:3] A8 | 
[V:4] (3:2:2F,8G,4 | 
[V:1] (3e4c4d4- | 
[V:2] (3C4E4F4 | 
[V:3] z8 | 
[V:4] A,4z4 | 
[V:1] (3d4e6c2 | 
[V:2] (3:2:2G8E4 | 
[V:3] B4c4- | 
[V:4] G,4A,4- | 
[V:1] (3:2:2c8=B4 | 
[V:2] (3:2:2F4D8 | 
[V:3] c2A2B2A2 | 
[V:4] A,2F,2G,4 | 
[V:1] (3:2:2c4A8 | 
[V:2] (3:2:2C8F4 | 
[V:3] (3F6G2A4 | 
[V:4] (3A,4F,6E,2 | 
[V:1] (3F4G6F2 | 
[V:2] (3:2:2F8E4 | 
[V:3] (3:2:2B4c8 | 
[V:4] (3:2:2D,4C,8 | 
[V:1] F8 |]  
[V:2] F8 |]  
[V:3] A8 |]  
[V:4] F,8 |]  



